components/Common/Svg/svgs/box.svg

<svg width="40" height="40" viewBox="0 0 40 40" fill="none" xmlns="http://www.w3.org/2000/svg">
<path fill-rule="evenodd" clip-rule="evenodd" d="M11.1106 2.73665C10.9048 2.74319 10.7095 2.82971 10.5664 2.97783L4.28336 9.26399L4.23389 9.31037C4.19702 9.34721 4.16387 9.3876 4.13494 9.43096C4.13286 9.43404 4.1308 9.43713 4.12876 9.44024C4.11659 9.45932 4.10524 9.47892 4.09475 9.49899C4.09266 9.50206 4.0906 9.50515 4.08856 9.50826C4.07841 9.52847 4.06912 9.5491 4.06073 9.5701C4.05864 9.57421 4.05657 9.57833 4.05455 9.58247C4.0464 9.60379 4.03918 9.62546 4.03291 9.6474C4.03071 9.65562 4.02865 9.66386 4.02672 9.67214C4.02178 9.69258 4.01765 9.71321 4.01435 9.73398C4.01028 9.75651 4.00718 9.77921 4.00508 9.80201C4.00504 9.80613 4.00504 9.81025 4.00508 9.81437C4.00339 9.83289 4.00236 9.85145 4.00198 9.87003V35.2002C4.00175 35.226 4.00279 35.2518 4.00508 35.2775C4.01441 35.3855 4.04582 35.4904 4.09736 35.5857C4.14889 35.6811 4.21946 35.7648 4.30469 35.8318C4.38991 35.8988 4.48798 35.9475 4.59281 35.975C4.67294 35.996 4.75572 36.0043 4.83812 35.9997C4.88894 35.9968 4.9397 35.9917 4.99061 35.9917H30.1237C30.132 35.9908 30.1402 35.9898 30.1484 35.9887C30.167 35.9883 30.1856 35.9872 30.2041 35.9856C30.2113 35.9846 30.2185 35.9836 30.2257 35.9825C30.2444 35.98 30.263 35.9769 30.2814 35.9732C30.3059 35.9683 30.3301 35.9623 30.354 35.9551C30.3551 35.9548 30.3561 35.9546 30.3572 35.9546C30.3582 35.9546 30.3592 35.9545 30.3601 35.9543C30.3669 35.9524 30.3736 35.9505 30.3803 35.9485C30.3981 35.9419 30.4156 35.9347 30.4329 35.9268C30.4402 35.9238 30.4474 35.9207 30.4545 35.9175C30.4713 35.9099 30.4878 35.9016 30.504 35.8928C30.5103 35.8888 30.5164 35.8846 30.5226 35.8804C30.546 35.8672 30.5687 35.8527 30.5906 35.8371C30.6054 35.8263 30.6199 35.815 30.6339 35.8031C30.6401 35.7981 30.6463 35.7929 30.6524 35.7877C30.663 35.7787 30.6733 35.7694 30.6834 35.7598L30.6926 35.7506L37.0159 29.4273C37.1643 29.2789 37.2478 29.0776 37.2478 28.8676V3.5375C37.2479 3.3641 37.1911 3.19546 37.0861 3.05748C36.9811 2.91951 36.8337 2.81983 36.6665 2.77376C36.6426 2.76654 36.6184 2.76046 36.5939 2.75553C36.5928 2.75531 36.5917 2.75521 36.5906 2.75521C36.5897 2.75521 36.5887 2.75513 36.5878 2.75497C36.5626 2.75073 36.5373 2.74772 36.5119 2.74593C36.4933 2.74528 36.4748 2.74528 36.4562 2.74593H36.4315H11.3513C11.2981 2.74593 11.2451 2.74035 11.192 2.73723C11.1649 2.73565 11.1378 2.73545 11.1106 2.73665ZM11.4538 4.32906H34.5453L30.0888 8.78557C29.9013 8.97311 29.6469 9.07846 29.3817 9.07846H6.70444L11.4538 4.32906ZM35.6647 5.44839V28.5399L30.9153 33.2893V10.1978L35.6647 5.44839ZM5.58512 10.6616H29.3321V34.4086H6.58512C6.03283 34.4086 5.58512 33.9609 5.58512 33.4086V10.6616ZM7.95982 24.9098C7.52265 24.9098 7.16825 25.2642 7.16825 25.7014C7.16825 26.1385 7.52265 26.4929 7.95982 26.4929H15.8755C16.3127 26.4929 16.6671 26.1385 16.6671 25.7014C16.6671 25.2642 16.3127 24.9098 15.8755 24.9098H7.95982ZM7.95982 28.0761C7.52265 28.0761 7.16825 28.4305 7.16825 28.8676C7.16825 29.3048 7.52265 29.6592 7.95982 29.6592H12.7092C13.1464 29.6592 13.5008 29.3048 13.5008 28.8676C13.5008 28.4305 13.1464 28.0761 12.7092 28.0761H7.95982Z" fill="black"/>
</svg>

<svg width="40" height="40" viewBox="0 0 40 40" fill="none" xmlns="http://www.w3.org/2000/svg"><path fill-rule="evenodd" clip-rule="evenodd" d="M11.11 2.737a.792.792 0 0 0-.544.24L4.283 9.265l-.05.046a.791.791 0 0 0-.231.56V35.2a.792.792 0 0 0 .836.8c.05-.003.102-.008.153-.008h25.133a.98.98 0 0 0 .024-.003.862.862 0 0 0 .133-.016.786.786 0 0 0 .223-.08l.019-.013a.766.766 0 0 0 .16-.12l.01-.01 6.323-6.323a.792.792 0 0 0 .232-.56V3.538a.792.792 0 0 0-.792-.791H11.351c-.053 0-.106-.006-.159-.009a.795.795 0 0 0-.081 0Zm.344 1.592h23.091L30.09 8.786a1 1 0 0 1-.707.292H6.704l4.75-4.749Zm24.21 1.12v23.09l-4.749 4.75V10.198l4.75-4.75ZM5.586 10.661h23.747v23.747H6.585a1 1 0 0 1-1-1V10.662ZM7.96 24.91a.792.792 0 0 0 0 1.583h7.916a.792.792 0 1 0 0-1.583H7.96Zm0 3.166a.792.792 0 1 0 0 1.583h4.75a.792.792 0 1 0 0-1.583H7.96Z" fill="#000"/></svg>
